X: 113
T: Pollonesse #113
M: 3/4
L: 1/16
R: Pollonesse
K: D
Q: 110
(3D2F2A2 d4e2g2|f2df e2ce d4|D2F2 A2d2 e2g2|f2a2 (3g2a2b2 a4:|
[c4e4][c4e4]e2g2|(f2ed) (cdec) A4|Acec Adfd Aceg|fedc d4D4:|

